dist/img/decoration-03.svg

<svg width="175" height="175" viewBox="0 0 175 175" fill="none" xmlns="http://www.w3.org/2000/svg">
<path d="M87.5 0L87.5169 87.4139L120.985 6.66051L87.5487 87.4273L149.372 25.6282L87.5727 87.4513L168.339 54.015L87.5861 87.4831L175 87.5L87.5861 87.5169L168.339 120.985L87.5727 87.5487L149.372 149.372L87.5487 87.5727L120.985 168.339L87.5169 87.5861L87.5 175L87.4831 87.5861L54.015 168.339L87.4513 87.5727L25.6282 149.372L87.4273 87.5487L6.66051 120.985L87.4139 87.5169L0 87.5L87.4139 87.4831L6.66051 54.015L87.4273 87.4513L25.6282 25.6282L87.4513 87.4273L54.015 6.66051L87.4831 87.4139L87.5 0Z" fill="#F0C3D2" stroke="#222831" stroke-width="4"/>
</svg>

<svg width="175" height="175" fill="none" xmlns="http://www.w3.org/2000/svg"><path d="M87.5 0l.017 87.414L120.985 6.66 87.549 87.427l61.823-61.799-61.8 61.823 80.767-33.436-80.753 33.468L175 87.5l-87.414.017 80.753 33.468-80.766-33.436 61.799 61.823-61.823-61.8 33.436 80.767-33.468-80.753L87.5 175l-.017-87.414-33.468 80.753 33.436-80.766-61.823 61.799 61.8-61.823L6.66 120.985l80.753-33.468L0 87.5l87.414-.017L6.66 54.015l80.766 33.436-61.799-61.823 61.823 61.8L54.015 6.66l33.468 80.753L87.5 0z" fill="#F0C3D2" stroke="#222831" stroke-width="4"/></svg>
